X: 19971
T: Jim Collins'
R: polka
M: 2/4
K: Amajor
|:EF/G/ AB|ce c2|Bd/B/ FG|AG FE|
EF/G/ AB|ce c2|Bd/B/ FG|A2 A2:|
|:ec/e/ de|[M:3/4] F2 FB Fc|[M:2/4] BF/B/ FE|
ec/e/ de|[M:3/4] F2 FB FG|[M:2/4] A2 A2:|

